X:4279
T:Miss Sackville's Fancy. HSJJ.040
O:england
M:2/4
L:1/16
Q:100
S:HSJ Jackson,Wyresdale,Lancs.1823
R:Reel
A:Lancashire
H:1823
K:D
A2FG B2dc|BGBe dcBA|defd B2ef|gefd dcBA|
A2FG A2dc|BGBe dcBA|defd Bgfe|dfecd4:|
|:dfed ecBA|defd fdAF|GBeG FAdF|EFGA GFED|
dfed ecBA|efge fedc|dfA^c Bgfe|fdecd4:|]
